symbols/web/arrow_circle_up/materialsymbolsrounded/arrow_circle_up_wght300grad200_48px.svg

<svg xmlns="http://www.w3.org/2000/svg" height="48" width="48"><path d="M24 31.3q.6 0 1.05-.425.45-.425.45-1.025V22.1l2.7 2.8q.4.45 1 .425.6-.025 1.05-.475.4-.4.4-1t-.4-1.05l-5-4.95q-.25-.25-.575-.4-.325-.15-.675-.15-.4 0-.7.15-.3.15-.5.4l-5.05 5q-.45.45-.425 1.025.025.575.475.975.4.45 1 .45t1.05-.45l2.7-2.75v7.75q0 .65.425 1.05t1.025.4Zm0 12.5q-4.15 0-7.775-1.525t-6.3-4.2q-2.675-2.675-4.2-6.3Q4.2 28.15 4.2 24t1.525-7.775q1.525-3.625 4.2-6.3 2.675-2.675 6.3-4.2Q19.85 4.2 24 4.2t7.775 1.525q3.625 1.525 6.3 4.2 2.675 2.675 4.2 6.3Q43.8 19.85 43.8 24t-1.525 7.775q-1.525 3.625-4.2 6.3-2.675 2.675-6.3 4.2Q28.15 43.8 24 43.8Zm0-2.9q7.15 0 12.025-4.875T40.9 24q0-7.15-4.875-12.025T24 7.1q-7.15 0-12.025 4.875T7.1 24q0 7.15 4.875 12.025T24 40.9ZM24 24Z"/></svg>

<svg xmlns="http://www.w3.org/2000/svg" height="48" width="48"><path d="M24 31.3Q24.6 31.3 25.05 30.875Q25.5 30.45 25.5 29.85V22.1L28.2 24.9Q28.6 25.35 29.2 25.325Q29.8 25.3 30.25 24.85Q30.65 24.45 30.65 23.85Q30.65 23.25 30.25 22.8L25.25 17.85Q25 17.6 24.675 17.45Q24.35 17.3 24 17.3Q23.6 17.3 23.3 17.45Q23 17.6 22.8 17.85L17.75 22.85Q17.3 23.3 17.325 23.875Q17.35 24.45 17.8 24.85Q18.2 25.3 18.8 25.3Q19.4 25.3 19.85 24.85L22.55 22.1V29.85Q22.55 30.5 22.975 30.9Q23.4 31.3 24 31.3ZM24 43.8Q19.85 43.8 16.225 42.275Q12.6 40.75 9.925 38.075Q7.25 35.4 5.725 31.775Q4.2 28.15 4.2 24Q4.2 19.85 5.725 16.225Q7.25 12.6 9.925 9.925Q12.6 7.25 16.225 5.725Q19.85 4.2 24 4.2Q28.15 4.2 31.775 5.725Q35.4 7.25 38.075 9.925Q40.75 12.6 42.275 16.225Q43.8 19.85 43.8 24Q43.8 28.15 42.275 31.775Q40.75 35.4 38.075 38.075Q35.4 40.75 31.775 42.275Q28.15 43.8 24 43.8ZM24 40.9Q31.15 40.9 36.025 36.025Q40.9 31.15 40.9 24Q40.9 16.85 36.025 11.975Q31.15 7.1 24 7.1Q16.85 7.1 11.975 11.975Q7.1 16.85 7.1 24Q7.1 31.15 11.975 36.025Q16.85 40.9 24 40.9ZM24 24Q24 24 24 24Q24 24 24 24Q24 24 24 24Q24 24 24 24Q24 24 24 24Q24 24 24 24Q24 24 24 24Q24 24 24 24Z"/></svg>
